outputs/icons/communication/phone_bluetooth_speaker_sharp.svg

<svg width="1200" height="1200" viewBox="0 0 1200 1200" fill="none" xmlns="http://www.w3.org/2000/svg"><g clip-path="url(#clip0_133_13)"><path d="M735.495 475L849.995 360.5V550H874.995L1017.495 407.5L910.495 300L1017.995 192.5L874.995 50H849.995V239.5L735.495 125L699.995 160.5L839.495 300L699.995 439.5L735.495 475ZM899.995 145.5L946.995 192.5L899.995 239.5V145.5ZM899.995 360.5L946.995 407.5L899.995 454.5V360.5ZM1049.995 773L786.495 742.5L660.495 868.5C518.995 796.5 402.995 681 330.995 539L457.495 412.5L426.995 150H151.495C122.495 659 540.995 1077.5 1049.995 1048.5V773Z" fill="black"/></g><defs><clipPath id="clip0_133_13"><path width="24" fill="white" d="M0 0H1200V1200H0V0z"/></clipPath></defs></svg>

<svg xmlns="http://www.w3.org/2000/svg" width="1200" height="1200" fill="none"><g clip-path="url(#a)"><path fill="#000" d="m735.495 475 114.5-114.5V550h25l142.5-142.5-107-107.5 107.5-107.5-143-142.5h-25v189.5L735.495 125l-35.5 35.5 139.5 139.5-139.5 139.5zm164.5-329.5 47 47-47 47zm0 215 47 47-47 47zm150 412.5-263.5-30.5-126 126c-141.5-72-257.5-187.5-329.5-329.5l126.5-126.5-30.5-262.5h-275.5c-29 509 389.5 927.5 898.5 898.5z"/></g><defs><clipPath id="a"><path fill="#fff" d="M0 0h1200v1200H0z"/></clipPath></defs></svg>
